src/assets/icons/social/instagram_bw.svg

<?xml version="1.0" encoding="UTF-8"?>
<svg width="48px" height="48px" viewBox="0 0 48 48" version="1.1" xmlns="http://www.w3.org/2000/svg"
     xmlns:xlink="http://www.w3.org/1999/xlink">
  <g stroke="none" stroke-width="1" fill="#fff" fill-rule="evenodd">
    <path
      d="M23.9924762,0.0151428571 C17.4764762,0.0151428571 16.6594286,0.0427619048 14.100381,0.15952381 C11.5466667,0.276 9.80257143,0.681619048 8.27647619,1.2747619 C6.6987619,1.88780952 5.3607619,2.70819048 4.02685714,4.042 C2.69304762,5.37590476 1.87266667,6.71390476 1.25961905,8.29161905 C0.66647619,9.81771429 0.260857143,11.5618095 0.144380952,14.1155238 C0.0276190476,16.6745714 0,17.491619 0,24.007619 C0,30.5235238 0.0276190476,31.3405714 0.144380952,33.899619 C0.260857143,36.4533333 0.66647619,38.1974286 1.25961905,39.7235238 C1.87266667,41.3012381 2.69304762,42.6392381 4.02685714,43.9731429 C5.3607619,45.3069524 6.6987619,46.1273333 8.27647619,46.7404762 C9.80257143,47.3335238 11.5466667,47.7391429 14.100381,47.855619 C16.6594286,47.972381 17.4764762,48 23.9924762,48 C30.508381,48 31.3254286,47.972381 33.8844762,47.855619 C36.4381905,47.7391429 38.1822857,47.3335238 39.708381,46.7404762 C41.2860952,46.1273333 42.6240952,45.3069524 43.958,43.9731429 C45.2918095,42.6392381 46.1121905,41.3012381 46.7253333,39.7235238 C47.318381,38.1974286 47.724,36.4533333 47.8404762,33.899619 C47.9572381,31.3405714 47.9848571,30.5235238 47.9848571,24.007619 C47.9848571,17.491619 47.9572381,16.6745714 47.8404762,14.1155238 C47.724,11.5618095 47.318381,9.81771429 46.7253333,8.29161905 C46.1121905,6.71390476 45.2918095,5.37590476 43.958,4.042 C42.6240952,2.70819048 41.2860952,1.88780952 39.708381,1.2747619 C38.1822857,0.681619048 36.4381905,0.276 33.8844762,0.15952381 C31.3254286,0.0427619048 30.508381,0.0151428571 23.9924762,0.0151428571 Z M23.9924762,4.33809524 C30.3986667,4.33809524 31.1575238,4.36257143 33.6874286,4.478 C36.0266667,4.58466667 37.2970476,4.97552381 38.1424762,5.30409524 C39.262381,5.73933333 40.061619,6.2592381 40.9011429,7.09885714 C41.7407619,7.93838095 42.2606667,8.73761905 42.6959048,9.85752381 C43.0244762,10.7029524 43.4153333,11.9733333 43.522,14.3125714 C43.6374286,16.8424762 43.6619048,17.6013333 43.6619048,24.007619 C43.6619048,30.4138095 43.6374286,31.1726667 43.522,33.7025714 C43.4153333,36.0418095 43.0244762,37.3121905 42.6959048,38.157619 C42.2606667,39.2775238 41.7407619,40.0767619 40.9011429,40.9162857 C40.061619,41.7559048 39.262381,42.2758095 38.1424762,42.7110476 C37.2970476,43.039619 36.0266667,43.4304762 33.6874286,43.5371429 C31.1579048,43.6525714 30.3991429,43.6770476 23.9924762,43.6770476 C17.5857143,43.6770476 16.8270476,43.6525714 14.2974286,43.5371429 C11.9581905,43.4304762 10.6878095,43.039619 9.84238095,42.7110476 C8.72247619,42.2758095 7.9232381,41.7559048 7.08371429,40.9162857 C6.24419048,40.0767619 5.72419048,39.2775238 5.28895238,38.157619 C4.96038095,37.3121905 4.56952381,36.0418095 4.46285714,33.7025714 C4.34742857,31.1726667 4.32295238,30.4138095 4.32295238,24.007619 C4.32295238,17.6013333 4.34742857,16.8424762 4.46285714,14.3125714 C4.56952381,11.9733333 4.96038095,10.7029524 5.28895238,9.85752381 C5.72419048,8.73761905 6.24409524,7.93838095 7.08371429,7.09885714 C7.9232381,6.2592381 8.72247619,5.73933333 9.84238095,5.30409524 C10.6878095,4.97552381 11.9581905,4.58466667 14.2974286,4.478 C16.8273333,4.36257143 17.5861905,4.33809524 23.9924762,4.33809524 L23.9924762,4.33809524 Z"
    />
    <path
      d="M23.9924762,32.0050476 C19.5755238,32.0050476 15.9949524,28.4244762 15.9949524,24.007619 C15.9949524,19.5906667 19.5755238,16.0100952 23.9924762,16.0100952 C28.4093333,16.0100952 31.9899048,19.5906667 31.9899048,24.007619 C31.9899048,28.4244762 28.4093333,32.0050476 23.9924762,32.0050476 Z M23.9924762,11.6871429 C17.188,11.6871429 11.672,17.2031429 11.672,24.007619 C11.672,30.812 17.188,36.328 23.9924762,36.328 C30.7968571,36.328 36.3128571,30.812 36.3128571,24.007619 C36.3128571,17.2031429 30.7968571,11.6871429 23.9924762,11.6871429 L23.9924762,11.6871429 Z"
    />
    <path
      d="M39.6787619,11.200381 C39.6787619,12.7904762 38.3897143,14.0794286 36.799619,14.0794286 C35.209619,14.0794286 33.9205714,12.7904762 33.9205714,11.200381 C33.9205714,9.61028571 35.209619,8.3212381 36.799619,8.3212381 C38.3897143,8.3212381 39.6787619,9.61028571 39.6787619,11.200381"
    />
  </g>
</svg>

<svg width="48" height="48" xmlns="http://www.w3.org/2000/svg"><g fill="#fff" fill-rule="evenodd"><path d="M23.992.015c-6.516 0-7.333.028-9.892.145-2.553.116-4.297.522-5.824 1.115-1.577.613-2.915 1.433-4.25 2.767-1.333 1.334-2.153 2.672-2.766 4.25-.594 1.526-1 3.27-1.116 5.824C.028 16.675 0 17.492 0 24.008S.028 31.34.144 33.9c.117 2.553.522 4.297 1.116 5.824.613 1.577 1.433 2.915 2.767 4.25 1.334 1.333 2.672 2.153 4.25 2.766 1.526.594 3.27 1 5.823 1.116 2.56.116 3.376.144 9.892.144s7.333-.028 9.892-.144c2.554-.117 4.298-.522 5.824-1.116 1.578-.613 2.916-1.433 4.25-2.767 1.334-1.334 2.154-2.672 2.767-4.25.593-1.526.999-3.27 1.115-5.823.117-2.56.145-3.376.145-9.892s-.028-7.333-.145-9.892c-.116-2.554-.522-4.298-1.115-5.824-.613-1.578-1.433-2.916-2.767-4.25-1.334-1.334-2.672-2.154-4.25-2.767C38.182.682 36.438.276 33.884.16 31.325.043 30.508.015 23.992.015zm0 4.323c6.407 0 7.166.025 9.695.14 2.34.107 3.61.498 4.455.826 1.12.435 1.92.955 2.76 1.795.839.84 1.359 1.639 1.794 2.759.328.845.72 2.115.826 4.455.115 2.53.14 3.288.14 9.695 0 6.406-.025 7.165-.14 9.695-.107 2.339-.498 3.61-.826 4.455-.435 1.12-.955 1.919-1.795 2.758-.84.84-1.639 1.36-2.759 1.795-.845.329-2.115.72-4.455.826-2.53.116-3.288.14-9.695.14-6.406 0-7.165-.024-9.695-.14-2.339-.107-3.61-.497-4.455-.826-1.12-.435-1.919-.955-2.758-1.795-.84-.84-1.36-1.638-1.795-2.758-.329-.846-.72-2.116-.826-4.455-.116-2.53-.14-3.29-.14-9.695 0-6.407.024-7.166.14-9.695.107-2.34.497-3.61.826-4.455.435-1.12.955-1.92 1.795-2.76.84-.839 1.638-1.359 2.758-1.794.846-.328 2.116-.72 4.455-.826 2.53-.115 3.29-.14 9.695-.14z"/><path d="M23.992 32.005a7.997 7.997 0 1 1 0-15.995 7.997 7.997 0 0 1 0 15.995zm0-20.318c-6.804 0-12.32 5.516-12.32 12.32 0 6.805 5.516 12.321 12.32 12.321 6.805 0 12.32-5.516 12.32-12.32 0-6.805-5.515-12.32-12.32-12.32zM39.679 11.2a2.88 2.88 0 1 1-5.758 0 2.88 2.88 0 0 1 5.758 0"/></g></svg>
